assets/delete_icon.svg

<svg width="24" height="24" viewBox="0 0 24 24" fill="none" xmlns="http://www.w3.org/2000/svg">
<path fill-rule="evenodd" clip-rule="evenodd" d="M18.8598 21.4389L18.8082 21.7098C18.5087 22.9524 17.4467 23.8701 16.174 23.9873L15.8982 24H8.10189C6.70868 23.9998 5.5129 23.0412 5.19191 21.7098L5.14026 21.4389L2.88615 5.98757H2.97678C2.28795 5.98757 1.72953 5.42896 1.72937 4.74016C1.72937 4.05124 2.28786 3.49275 2.97678 3.49275H8.00833V1.99586C8.00833 0.893576 8.90191 0 10.0042 0H13.9959C15.0981 0.00013991 15.9918 0.893662 15.9918 1.99586V3.49275H21.0233C21.7122 3.49282 22.2707 4.05128 22.2707 4.74016C22.2706 5.42892 21.7121 5.98751 21.0233 5.98757H21.1139L18.8598 21.4389ZM7.60877 21.0783C7.64472 21.3231 7.8545 21.505 8.10189 21.5052H15.8982C16.1454 21.5047 16.3555 21.323 16.3913 21.0783L18.5928 5.98757H5.40728L7.60877 21.0783ZM10.5032 3.49275H13.4969V2.49482H10.5032V3.49275Z" fill="#111111"/>
</svg>

<?xml version="1.0" encoding="UTF-8"?>
<svg id="Layer_1" xmlns="http://www.w3.org/2000/svg" version="1.1" viewBox="0 0 24 24">
  <!-- Generator: Adobe Illustrator 29.7.1, SVG Export Plug-In . SVG Version: 2.1.1 Build 8)  -->
  <path d="M18.9,21.4v.3c-.4,1.2-1.4,2.2-2.7,2.3h-.3s-7.8,0-7.8,0c-1.4,0-2.6-1-2.9-2.3v-.3c0,0-2.3-15.5-2.3-15.5h0c-.7,0-1.2-.6-1.2-1.2,0-.7.6-1.2,1.2-1.2h5v-1.5c0-1.1.9-2,2-2h4c1.1,0,2,.9,2,2v1.5h5c.7,0,1.2.6,1.2,1.2,0,.7-.6,1.2-1.2,1.2h0l-2.3,15.5ZM7.6,21.1c0,.2.2.4.5.4h7.8c.2,0,.5-.2.5-.4l2.2-15.1H5.4l2.2,15.1ZM10.5,3.5h3v-1h-3v1Z" fill="#111" fill-rule="evenodd"/>
</svg>
